X:710
T:no name
R:reel
S:EB
Z:id:hn-reel-710
M:C|
K:G
dg~g2 egdB|dg~g2 ABcA|dg~g2 defd|cBAB c2Bc:|
|:d2BG DG~G2|DGBG ABce|d2BG DGBd|cBAB c2Bc:|
